X:1
T:He Is Risen
T:He Is Risen
T:Alonzo Judson Abbey
T:Eden Reeder Latta, 1879
T:Public Domain Courtesy of the Cyber Hymnal™
C:Alonzo Judson Abbey
Z:Public Domain
Z:Courtesy of the Cyber Hymnal™
%%score ( 1 2 ) 3
L:1/8
Q:1/4=95
M:3/4
K:Ab
V:1 treble 
V:2 treble 
V:3 bass 
V:1
 [Ec]>[=D=B] | [Ec]3 [CE] [DF][CE] | [CE] [CA]3 [CA]>[CA] | [DB]3 [C=A] [DB][Ec] | %4
w: 1.~In the|dim and ear- ly|morn- ing, As the|day be- gins to|
w: 2.~They are|seek- ing for the|Sav- ior In the|damp- ness and the|
w: 3.~Oh, how|sad- ly do they|quest- ion, As in|sor- row on they|
w: 4.~Weep no|more, ye sad dis-|ci- ples, Your Re-|deem- er ye shall|
 [CA]4 [Ec]>[D=B] | [Ec]3 [CE] [DF][CE] | [CE] [CA]3 [Ec]>[Ac] | [GB]3 [GB] [Ac][A=d] | [Ge]4 || %9
w: dawn, To the|se- pul- cher ap-|proach- ing, Lov- ing|hearts are draw- ing|on.|
w: gloom; But He|slum- bers there no|long- er; They ap-|proach an emp- ty|tomb.|
w: stray! But be-|hold the shin- ing|an- gel, He has|rolled the rock a-|way!|
w: see; He is|ris- en as He|prom- ised; Seek for|Him in Gal- i-|lee.|
"^Refrain" [ce][ce] | [ce]3 [Ac] [Ac][Bd] | [ce]4 [ce][ce] | [ce]3 [Ac] [Ac][Bd] | [ce]4 ee | %14
w: |||||
w: He is|ris- en as He|said; He is|ris- en from the|dead; He is|
w: |||||
w: |||||
 e3 [Ac] [Gd][Ae] | f4 [Ae][Ac] | [EA]"^riten."E c2 [GB]2 | A7 |] x7 |] %19
w: |||||
w: ris- en as He|said, Ris- en,|ris- en from the|dead.||
w: |||||
w: |||||
V:2
 x2 | x6 | x6 | x6 | x6 | x6 | x6 | x6 | x4 || x2 | x6 | x6 | x6 | x6 | (AA A) x3 | (AA A2) x2 | %16
 x E (EA) x2 | A7 |] x7 |] %19
V:3
 z2 | A,,2 A,2 A,2 | A,,2 A,2 A,2 | E,,2 E,2 E,2 | A,,2 A,2 z2 | A,,2 A,2 A,2 | A,,2 A,2 A,2 | %7
w: |~ ~ ~|~ ~ ~|~ ~ ~|~ ~|~ ~ ~|~ ~ ~|
 B,,2 B,2 B,2 | [E,B,]4 || z2 | [A,E]>[A,E] [A,E][A,E] [A,E][A,E] | [A,E][A,E] [A,E]2 z2 | %12
w: ~ ~ ~|~||He is ris- en, ris- en|as He said;|
 [A,E]>[A,E] [A,E][A,E] [A,E][A,E] | [A,E][A,E] [A,E]2 z2 | [A,C][A,C] [A,C][A,,E] [B,,E][C,E] | %15
w: He is ris- en, ris- en|from the dead;|He is ris- en, ris- en|
 [D,D][D,D] [D,D]2 x2 | [E,C][E,E] x4 | [A,C][A,C] [E,E]2 [E,D]2 x |] [A,,C]7 |] %19
w: as He said,||||

